!!!COM:      Bach, Johann Sebastian
!!!CDT:      1685/03/31/-1750/07/28/
!!!OPR@@GER: Das wohltemperirte Clavier
!!!OVM@@GER: Band I
!!!OPR@ENG:  Well-Tempered Clavier
!!!OVM@ENG:  Book I
!!!OTL:      Prelude
!!!OKY:      A-flat major
!!!ONM:      no. 17
!!!SCT:      BWV 862
!!!OMV:      1
**kern	**kern	**kern
*clefF4	*	*clefG2
*k[b-e-a-d-]	*	*k[b-e-a-d-]
*A-:	*	*A-:
*M3/4	*	*M3/4
*MM78	*MM78	*MM78
=1-	=1-	=1-
4A- 4c 4e-	2.ryy	8r
.	.	16a-
.	.	16g
4r	.	8a-
.	.	8cc
4r	.	8e-
.	.	8a-
=2	=2	=2
4G 4B- 4e-	2.ryy	8r
.	.	16b-
.	.	16a-
4r	.	8b-
.	.	8dd-
4r	.	8e-
.	.	8b-
=3	=3	=3
*	*staff:14	*
*	*clefG2	*
*	*k[b-e-a-d-]	*
8r	4r	4cc
16A-	.	.
16G	.	.
8A-	4cc 4ee-	4aa-
8c	.	.
8E-	8r	8r
8A-	8cc	8ee-
=4	=4	=4
8r	4b-	4dd-
16B-	.	.
16A-	.	.
8B-	4r	4gg
8d-	.	.
8E-	8r	8r
8B-	8b- 8dd-	8gg
=5	=5	=5
8r	4a- 4ee-	4aa-
16c	.	.
16B-	.	.
8c	4r	4ee-
8e-	.	.
8A-	8r	8r
8c	8b-	8ee-
=6	=6	=6
4F	4a-	8ee-
.	.	16aa-
.	.	16gg
4f	4r	8aa-
.	.	8ff
4r	4r	8cc
.	.	8ee-
=7	=7	=7
8r	4b-	4dd-
16B-	.	.
16A-	.	.
8B-	4r	4aa-
8d-	.	.
8G	8r	8r
8B-	8a-	8dd-
=8	=8	=8
4E-	4g	8dd-
.	.	16bb-
.	.	16aa-
4e-	4r	8bb-
.	.	8gg
4r	8r	8dd-
.	8g	8dd- 8bb-
=9	=9	=9
8r	4a-	4cc
16A-	.	.
16G	.	.
8A-	4ryy	16r
.	.	16ee-
8c	.	16ff
.	.	16gg
8F	4ryy	16aa-
.	.	16ff
8A-	.	16ddn
.	.	16ff
=10	=10	=10
8Dn	2.ryy	[4b-
16G	.	.
16F	.	.
8G	.	16b-]
.	.	16ddn
8B-	.	16ee-
.	.	16ff
8E-	.	16gg
.	.	16ee-
8G	.	16cc
.	.	16ee-
=11	=11	=11
8C	2.ryy	16a-
.	.	16b-
16F	.	16g
16E-	.	16b-
8F	.	16a-
.	.	16cc
8A-	.	16ddn
.	.	16ee-
8Dn	.	16ff
.	.	16dd
8F	.	16b-
.	.	16dd
=12	=12	=12
8BB-	2.ryy	16g
.	.	16a-
16E-	.	16f
16Dn	.	16a-
8E-	.	16g
.	.	16b-
8G	.	16cc
.	.	16ddn
8C	.	16ee-
.	.	16cc
8E-	.	16a-
.	.	16cc
=13	=13	=13
8AA-	2.ryy	16f
.	.	16ee-
16F	.	16ddn
16E-	.	16ee-
8F	.	16a-
.	.	16ee-
8A-	.	16dd
.	.	16ee-
8Dn	.	16f
.	.	16ee-
8F	.	16dd
.	.	16ee-
=14	=14	=14
8BB-	2.ryy	16g
.	.	16ee-
16G	.	16ddn
16F	.	16ee-
8G	.	16b-
.	.	16ee-
8B-	.	16dd
.	.	16ee-
8E-	.	16g
.	.	16ee-
8G	.	16dd
.	.	16ee-
=15	=15	=15
8C	2.ryy	16a-
.	.	16ee-
16A-	.	16dd-X
16G	.	16ee-
8A-	.	16cc
.	.	16ee-
8c	.	16b-
.	.	16ee-
8F	.	16a-
.	.	16ee-
8A-	.	16g
.	.	16ee-
=16	=16	=16
8Dn	2.ryy	16f
.	.	16ee-
8F	.	16g
.	.	16ee-
8BB-	.	16a-
.	.	16ddn
8D	.	16ee-
.	.	16ff
8E-	.	16g
.	.	16b-
8C	.	16a-
.	.	16cc
=17	=17	=17
8GG	2ryy	16b-
.	.	16ee-
8FF	.	16ddn
.	.	16cc
8GG	.	16b-
.	.	16a-
8AA-	.	16b-
.	.	16cc
4BB-	4dn	8.f
.	.	16e-
=18	=18	=18
8r	4e-	4e-
16E-	.	.
16Dn	.	.
8E-	4g 4b-	4ee-
8G	.	.
8BB-	8r	8r
8E-	8g	8b-
=19	=19	=19
8r	4f	4a-
16F	.	.
16E-	.	.
8F	4r	4ddn
8A-	.	.
8BB-	8r	8r
8F	8f 8a-	8dd
=20	=20	=20
4G	8e- 8g 8b-	8ee-
.	8ryy	16e-
.	.	16dn
8r	4ryy	8e-
16E-	.	8g
16F	.	.
16G	4ryy	8B-
16F	.	.
16G	.	8e-
16E-	.	.
=21	=21	=21
8B-	2.ryy	8r
8BB-	.	16f
.	.	16e-
8r	.	8f
16BB-	.	8a-
16C	.	.
16Dn	.	8B-
16C	.	.
16D	.	8f
16BB-	.	.
=22	=22	=22
8E-	2.ryy	8g
8EE-	.	16b-
.	.	16a-
8r	.	8b-
16d-X	.	8ee-
16c	.	.
16B-	.	8g
16c	.	.
16A-	.	8b-
16B-	.	.
=23	=23	=23
16G	2.ryy	8e-
16A-	.	.
16F	.	16g
16G	.	16f
16E-	.	8g
16F	.	.
16D-	.	8b-
16E-	.	.
16C	.	8e-
16D-	.	.
16BB-	.	8g
16C	.	.
=24	=24	=24
8AA-	2.ryy	8c
16e-	.	8r
16d-	.	.
8e-	.	8r
8a-	.	16gg-
.	.	16ff
8c	.	16ee-
.	.	16ff
8e-	.	16dd-
.	.	16ee-
=25	=25	=25
8A-	2.ryy	16cc
.	.	16dd-
16c	.	16b-
16B-	.	16cc
8c	.	16a-
.	.	16b-
8e-	.	16g-
.	.	16a-
8A-	.	16f
.	.	16g-
8c	.	16e-
.	.	16f
=26	=26	=26
[4F	2.ryy	8d-
.	.	16dd-
.	.	16cc
16F]	.	8dd-
16A-	.	.
16B-	.	8ff
16c	.	.
16d-	.	8b-
16B-	.	.
16G	.	8dd-
16B-	.	.
=27	=27	=27
[4E-	2.ryy	8g
.	.	16cc
.	.	16b-
16E-]	.	8cc
16G	.	.
16A-	.	8ee-
16B-	.	.
16c	.	8a-
16A-	.	.
16F	.	8cc
16A-	.	.
=28	=28	=28
16D-	2.ryy	8f
16E-	.	.
16C	.	16b-
16E-	.	16a-
16D-	.	8b-
16F	.	.
16G	.	8dd-
16A-	.	.
16B-	.	8g
16G	.	.
16E-	.	8b-
16G	.	.
=29	=29	=29
16C	2.ryy	8e-
16D-	.	.
16BB-	.	16a-
16D-	.	16g
16C	.	8a-
16E-	.	.
16F	.	8cc
16G	.	.
16A-	.	8f
16F	.	.
16D-	.	8a-
16F	.	.
=30	=30	=30
16BB-	2.ryy	8d-
16A-	.	.
16G	.	16b-
16A-	.	16a-
16D-	.	8b-
16A-	.	.
16G	.	8dd-
16A-	.	.
16BB-	.	8g
16A-	.	.
16G	.	8b-
16A-	.	.
=31	=31	=31
16C	2.ryy	8e-
16A-	.	.
16G	.	16cc
16A-	.	16b-
16E-	.	8cc
16A-	.	.
16G	.	8ee-
16A-	.	.
16C	.	8a-
16A-	.	.
16G	.	8cc
16A-	.	.
=32	=32	=32
16D-	2.ryy	8f
16A-	.	.
16G-	.	16dd-
16A-	.	16cc
16F	.	8dd-
16A-	.	.
16E-	.	8ff
16A-	.	.
16D-	.	8b-
16A-	.	.
16C	.	8dd-
16A-	.	.
=33	=33	=33
16BB-	2.ryy	8g
16D-	.	.
16C	.	8b-
16E-	.	.
16D-	.	8e-
16F	.	.
16E-	.	8g
16D-	.	.
16C	.	[4a-
16E-	.	.
16D-	.	.
16F	.	.
=34	=34	=34
*	*staff:2	*
8E-	4ryy	16a-]
.	.	16g
16F	.	16a-
16D-	.	16b-
8E-	2g	4.b-W
8D-	.	.
8E-	.	.
8EE-	.	8a-
=35	=35	=35
4AA-	4a-	8a-
.	.	16ee-
.	.	16dd-
4A-	4ryy	8ee-
.	.	8cc
4r	4ryy	8g
.	.	8b-
=36	=36	=36
8r	4f	4a-W
16F	.	.
16E-	.	.
8F	4ryy	[4ee-
8A-	.	.
8D-	4ryy	16ee-]
.	.	16g-
8F	.	16f
.	.	16e-
=37	=37	=37
4BB-	2.ryy	8d-
.	.	16dd-
.	.	16cc
4A-	.	8dd-
.	.	8b-
4r	.	8f
.	.	8a-
=38	=38	=38
8r	4e-	4gw
16E-	.	.
16D-	.	.
8E-	4ryy	[4dd-
8G	.	.
8C	4ryy	16dd-]
.	.	16f
8E-	.	16e-
.	.	16d-
=39	=39	=39
16AA-	2.ryy	16c
16A-	.	16cc
16G	.	16b-
16A-	.	16cc
16F	.	16a-
16A-	.	16cc
16E-	.	16g
16A-	.	16cc
16D-	.	16f
16A-	.	16cc
16C	.	16e-
16A-	.	16cc
=40	=40	=40
16BB-	2.ryy	16d-
16B-	.	16dd-
16A-	.	16cc
16B-	.	16dd-
16G	.	16b-
16B-	.	16dd-
16F	.	16a-
16B-	.	16dd-
16E-	.	16g
16B-	.	16dd-
16D-	.	16f
16B-	.	16dd-
=41	=41	=41
8C	2.ryy	8e-
8c	.	16a-W
.	.	16g
8r	.	8a-
16F	.	8cc
16G	.	.
16A-	.	8f
16G	.	.
16A-	.	8a-
16F	.	.
=42	=42	=42
8B-	2.ryy	8dd-
8BB-	.	16gw
.	.	16f
8r	.	8g
16E-	.	8b-
16F	.	.
16G	.	8e-
16F	.	.
16G	.	8g
16E-	.	.
=43	=43	=43
8A-	8r	8cc
8D-	8d- 8f	8a-
8E-	2B- 2e-	4a-
8D-	.	.
8E-	.	4g
8EE-	.	.
=44	=44	=44
2.AA-	2.c;y 2.e-;y	2.a-;
==	==	==
*-	*-	*-
!!!AFR:  prelude
!!!EFL:  33/96
!!!END:  1994/01/18/
!!!VID:  699335330 Bach, BWV 862-01
!!!AST:  Baroque
!!!OCY:  Deutschland
!!!ODT:  1722///
!!!PDT:  1801///
!!!EED:  Walter Hewlett
!!!ENC:  Walter Hewlett
!!!YOR:  Bach Gesellschaft Edition xiv
!!!AFT:  enhanced SCORE
!!!RDT:  2011/10/07/ by Andreas Kornstaedt using massScr2hmd
!!!SCA1: Thematisch-systematisches Verzeichnis der musikalischen Werke 
!!!SCA2: Johann Sebastian Bach: Bach-Werke-Verzeichnis (Schmieder)
!!!YEC1: Copyright 1994, 2000 Center for Computer Assisted Research 
!!!YEC2: in the Humanities
!!!YEM1: Rights to all derivative editions reserved.
!!!YEM2: Refer to licensing agreement for further details.
!!!YEN:  United States of America
!!!ref:  @{OTL}, @{SCT}
!!muse2ps: T^@{OTL} @{ONM} in @{OKY}^C^J.S. Bach\n@{SCT}-@{OMV}^
!!muse2ps: u^@{OPR@ENG}, @{OVM@ENG}^j
